Obsidian/actions/22s/layer-visible-on.svg

<svg height="22" viewBox="0 0 22 22" width="22" xmlns="http://www.w3.org/2000/svg"><path d="m4 2-3 3h11l3-3zm0 5-3 3h11l3-3zm0 5-3 3h11l3-3z" fill="#bebebe" transform="translate(3 3)"/></svg>

<svg xmlns="http://www.w3.org/2000/svg" width="22" height="22" viewBox="0 0 22 22">
 <defs>
  <style id="current-color-scheme" type="text/css">
   .ColorScheme-Text { color:#bebebe; } .ColorScheme-Highlight { color:#4285f4; }
  </style>
 </defs>
 <path style="fill:currentColor" class="ColorScheme-Text" d="M 4 2 L 1 5 L 12 5 L 15 2 L 4 2 z M 4 7 L 1 10 L 12 10 L 15 7 L 4 7 z M 4 12 L 1 15 L 12 15 L 15 12 L 4 12 z" transform="translate(3 3)"/>
</svg>
